resources/svg/align-center-horizontal-o.svg

<svg xmlns="http://www.w3.org/2000/svg" viewBox="0 0 15 15" fill="none"><path d="M7.5 0v3.5m0 8V15m0-8.5v2M4 3.5v3h7v-3H4zm-2.5 5v3h12v-3h-12z" stroke="currentColor"/></svg>

<svg xmlns="http://www.w3.org/2000/svg" viewBox="0 0 15 15" fill="none"><path d="M7.5 0V3.5M7.5 11.5V15M7.5 6.5V8.5M4 3.5V6.5H11V3.5H4ZM1.5 8.5V11.5H13.5V8.5H1.5Z" stroke="black"/></svg>
